X: 21038
T: Jump At The Sun
R: jig
M: 6/8
K: Dminor
|:DFA ^G2A|DFA ^G2A|dAA dAA|BAG FEF|
DFA ^G2A|DFA ^G2A|dAA BAG|1 FEF D3:|2 FEF D2A||
|:d2e f2e|def gfe|d2e f2e|A^GA B2A|
d2e f2e|def gfe|dAA BAG|1 FEF D2A:|2 FEF D3||

